assets/img/logo/logo-footer.svg

<svg width="143" height="128" viewBox="0 0 143 128" fill="none" xmlns="http://www.w3.org/2000/svg">
<path d="M106.851 39.2359C106.637 39.0227 106.406 38.8272 106.175 38.6673C106.051 38.5784 105.927 38.5074 105.802 38.4363C105.678 38.3652 105.553 38.3119 105.429 38.2408C105.109 38.0987 104.771 38.0098 104.416 37.9565C104.274 37.9387 104.114 37.921 103.954 37.921C103.776 37.921 103.599 37.921 103.421 37.9387C103.368 37.9387 103.332 37.9387 103.279 37.9565L102.906 38.0098C102.817 38.0276 102.746 38.0454 102.657 38.0631C102.373 38.1342 102.088 38.2408 101.804 38.383C101.04 38.7561 100.365 39.2714 99.7605 39.8756L98.6233 41.0306L99.6717 33.372C99.7783 32.5368 99.9382 31.7016 100.134 30.8843L102.071 22.8702C102.124 22.6392 102.124 22.426 102.071 22.2127L103.03 18.2501C103.172 18.0902 103.279 17.8948 103.332 17.6638L103.545 16.7575C104.523 12.7238 104.665 8.60132 103.954 4.51434C103.652 2.75516 102.497 1.24475 100.88 0.498433C100.187 0.160813 99.3873 0.000887817 98.5877 0.000887817C97.5926 -0.0168817 96.5975 0.231891 95.7091 0.764976L89.7207 4.3011C85.5805 6.75329 81.1026 8.53024 76.4114 9.59641C74.8299 9.9518 73.1951 10.1473 71.5603 10.165H71.0628C69.428 10.1473 67.7932 9.9518 66.2117 9.59641C61.5206 8.53024 57.0249 6.75329 52.8846 4.3011L46.9141 0.764976C46.0256 0.249661 45.0305 -0.0168817 44.0354 0.000887817C43.2358 0.000887817 42.4362 0.160813 41.6898 0.498433C40.0728 1.24475 38.9178 2.75516 38.6157 4.51434C37.9049 8.60132 38.0471 12.7238 39.0244 16.7575L39.2376 17.6638C39.291 17.8948 39.3976 18.0902 39.5397 18.2501L40.4993 22.2127C40.446 22.426 40.4282 22.6392 40.4993 22.8702L42.4362 30.8843C42.6316 31.7016 42.7915 32.5368 42.8982 33.372L43.9466 41.0306L42.8093 39.8756C42.2051 39.2714 41.5299 38.7739 40.7658 38.383C40.4815 38.2408 40.215 38.1342 39.9129 38.0631C39.824 38.0454 39.753 38.0276 39.6641 38.0098C39.5397 37.992 39.4153 37.9565 39.291 37.9565C39.2376 37.9565 39.2021 37.9387 39.1488 37.9387C38.9711 37.921 38.7934 37.921 38.6157 37.921C38.4558 37.921 38.3136 37.9387 38.1537 37.9565C37.8161 38.0098 37.4607 38.0987 37.1408 38.2408C37.0165 38.2941 36.8921 38.3652 36.7677 38.4363C36.6433 38.5074 36.5189 38.5784 36.3945 38.6673C36.1635 38.8272 35.9325 39.0227 35.7193 39.2359C34.3866 40.6042 34.12 42.5766 35.0263 44.2647L39.4864 52.5097C40.1261 53.718 41.2634 54.5887 42.5783 54.9264L43.0403 55.0508L44.1598 55.3351L50.6101 85.6143C51.001 88.0131 52.6714 89.9678 54.9992 90.6786C55.4612 90.8207 55.9232 90.9096 56.3852 90.9451C56.5629 90.9629 56.7406 90.9629 56.9183 90.9629C58.6419 90.9629 60.2945 90.2699 61.5383 88.9549L71.2583 78.6664L80.9782 88.9549C82.2043 90.2521 83.8746 90.9629 85.5982 90.9629C85.7759 90.9629 85.9536 90.9629 86.1313 90.9451C86.309 90.9629 86.4867 90.9629 86.6644 90.9629C87.3041 90.9629 87.9438 90.874 88.5835 90.6608C90.9113 89.9323 92.5994 87.9954 92.9726 85.5965L99.4584 55.1929C99.4762 55.1396 99.4762 55.0863 99.4762 55.033L99.9382 54.9086C101.253 54.571 102.39 53.6825 103.03 52.4919L107.49 44.2469C107.561 44.1225 107.615 43.9981 107.668 43.8737C107.703 43.7849 107.739 43.696 107.775 43.625C107.81 43.5361 107.828 43.4473 107.863 43.3584C107.881 43.2696 107.917 43.1807 107.934 43.0919L107.988 42.8253C108.006 42.7365 108.006 42.6476 108.023 42.5588C108.183 41.3682 107.757 40.1599 106.851 39.2359ZM97.7703 28.7875L97.4149 30.2445C97.2017 31.1508 97.024 32.0748 96.8996 32.9988L96.0111 39.4491L72.662 47.1789V12.8127C74.1191 12.7416 75.5762 12.5461 76.9978 12.2441L77.0511 12.2263C82.0621 11.1068 86.8421 9.22325 91.2489 6.59337L97.2372 3.05724C97.6459 2.80847 98.1079 2.68408 98.5699 2.66631C98.9253 2.68408 99.2985 2.77293 99.6539 2.93285C100.489 3.32378 101.075 4.0701 101.218 4.97634C101.857 8.70794 101.733 12.4573 100.844 16.1356L99.1386 23.2078C99.0853 23.4388 99.0853 23.6521 99.1386 23.8653L98.0902 28.2188C97.9302 28.3788 97.8236 28.5742 97.7703 28.7875ZM83.6258 56.3124L74.4212 59.3687C73.8526 59.5642 73.2662 59.6886 72.6798 59.7774V50.0753L95.6202 42.4877L95.3537 44.4068L83.6258 56.3124ZM71.4893 62.5672C72.893 62.5672 74.2791 62.354 75.6118 61.9098L84.6564 58.9067C84.7275 58.889 84.7986 58.8534 84.8697 58.8179L84.923 58.8001L84.9941 58.7823L71.3116 73.4777L57.6291 58.7823L57.6824 58.8001L57.7357 58.8179C57.8068 58.8534 57.8778 58.889 57.9489 58.9067L66.9936 61.9098C68.3263 62.354 69.7301 62.5672 71.1161 62.5672H71.4893ZM55.8699 88.1375C54.4839 87.7111 53.5243 86.5916 53.3111 85.17C53.3111 85.1523 53.3111 85.1167 53.2933 85.0989L47.1095 56.0814L50.8589 57.0409L52.8491 57.5562L70.121 76.1076L59.6726 87.1602C58.8196 88.0665 57.6646 88.4574 56.474 88.2975C56.2608 88.2441 56.0653 88.2086 55.8699 88.1375ZM45.7235 32.9988C45.5991 32.0748 45.4214 31.1508 45.2082 30.2445L44.8528 28.7875C44.7995 28.5564 44.6929 28.361 44.5507 28.2011L43.5023 23.8475C43.5556 23.6343 43.5556 23.4211 43.5023 23.1901L41.7787 16.1178C40.8902 12.4395 40.7658 8.69017 41.4055 4.95857C41.5654 4.05233 42.1341 3.30601 42.9692 2.91508C43.3246 2.75516 43.68 2.66631 44.0532 2.64854C44.5152 2.66631 44.9772 2.7907 45.3859 3.03947L51.3742 6.5756C55.781 9.18771 60.561 11.089 65.572 12.2085L65.6253 12.2263C67.0469 12.5461 68.504 12.7238 69.9611 12.7949V47.1789L46.612 39.4669L45.7235 32.9988ZM47.2872 44.4068L47.0207 42.4877L69.9611 50.0753V59.7774C69.3747 59.6886 68.7883 59.5464 68.2197 59.3687L59.0151 56.3124L47.2872 44.4068ZM43.2891 52.3498C42.6849 52.1899 42.1696 51.7989 41.8675 51.2481L37.4074 43.003C37.3363 42.8787 37.3008 42.772 37.2652 42.6654C37.2297 42.5766 37.2119 42.5055 37.2119 42.4166V42.3989C37.1586 42.0079 37.283 41.6703 37.4252 41.4393C37.4429 41.4038 37.4607 41.386 37.4785 41.3505C37.514 41.2972 37.5495 41.2616 37.5673 41.2261L37.6206 41.1728C37.6384 41.1372 37.6562 41.1195 37.6739 41.1017C37.8161 40.9595 38.2248 40.5864 38.8289 40.5864C39.0599 40.5864 39.3087 40.6397 39.5753 40.7819C40.0728 41.0306 40.517 41.3682 40.908 41.7592L54.0574 55.1218C53.9152 55.0508 53.7553 55.0152 53.6132 54.9974L43.2891 52.3498ZM86.1668 88.2797C84.9763 88.4574 83.8213 88.0487 82.9683 87.1424L72.5199 76.0898L89.7918 57.5562L91.782 57.0409L95.5314 56.0814L96.6686 55.7793L90.4138 85.0812C90.4138 85.0989 90.4138 85.1345 90.396 85.1523C90.1828 86.5916 89.2232 87.6933 87.8372 88.1198C87.2686 88.3152 86.6999 88.3508 86.1668 88.2797ZM105.411 42.3811C105.411 42.4344 105.393 42.47 105.393 42.5233C105.376 42.5766 105.376 42.6299 105.358 42.6654C105.322 42.772 105.287 42.8787 105.216 42.9853L100.756 51.2303C100.454 51.7812 99.9382 52.1721 99.334 52.332L89.01 54.9797C88.85 54.9974 88.7079 55.033 88.5657 55.1041L101.715 41.7414C102.106 41.3505 102.55 41.0129 103.048 40.7641C103.314 40.6219 103.581 40.5686 103.794 40.5686C104.381 40.5686 104.807 40.924 104.949 41.0839C104.985 41.1372 105.056 41.1906 105.127 41.2972C105.162 41.3327 105.18 41.3682 105.216 41.4216C105.251 41.4926 105.287 41.5637 105.322 41.6526C105.34 41.6703 105.34 41.7059 105.358 41.7414C105.393 41.9191 105.429 42.1323 105.411 42.3811Z" fill="#DD6C2C"/>
<path d="M8.24781 118.92C7.77544 118.337 7.13324 117.891 6.3212 117.578C6.93686 117.259 7.41454 116.824 7.7436 116.267C8.07797 115.715 8.24781 115.062 8.24781 114.314C8.24781 113.125 7.84975 112.228 7.04832 111.633C6.2522 111.039 5.12171 110.742 3.67277 110.742H0V124.939H4.21944C5.07394 124.939 5.85414 124.796 6.56534 124.515C7.28185 124.233 7.85505 123.798 8.29557 123.204C8.73609 122.604 8.9537 121.856 8.9537 120.953C8.9537 120.178 8.72017 119.504 8.24781 118.92ZM1.90538 116.946V112.567H3.74707C4.5485 112.567 5.16947 112.743 5.6153 113.098C6.06113 113.454 6.28404 113.99 6.28404 114.706C6.28404 115.364 6.09828 115.901 5.72145 116.32C5.34993 116.739 4.79795 116.946 4.06552 116.946H1.90538ZM6.1832 122.614C5.64715 122.986 4.96779 123.172 4.13983 123.172H1.90538V118.793H4.00714C4.8298 118.793 5.53569 118.968 6.11421 119.324C6.69803 119.674 6.98994 120.226 6.98994 120.974C6.98994 121.691 6.71926 122.238 6.1832 122.614ZM12.255 114.239C11.5968 115.349 11.2731 116.553 11.2731 117.848C11.2731 119.186 11.5968 120.407 12.2443 121.511C12.8918 122.62 13.7729 123.49 14.8821 124.132C15.9967 124.775 17.2068 125.098 18.5178 125.098C19.8128 125.098 21.0229 124.775 22.1428 124.122C23.2573 123.474 24.149 122.593 24.8018 121.484C25.4546 120.369 25.7837 119.159 25.7837 117.848C25.7837 116.553 25.4546 115.349 24.7912 114.239C24.1278 113.125 23.2414 112.238 22.1322 111.575C21.0176 110.917 19.8128 110.582 18.5178 110.582C17.2068 110.582 16.002 110.917 14.8928 111.575C13.7888 112.238 12.9078 113.125 12.255 114.239ZM13.9427 120.56C13.4704 119.738 13.2368 118.841 13.2368 117.87C13.2368 116.888 13.4651 115.98 13.9321 115.142C14.3939 114.303 15.0361 113.64 15.8481 113.146C16.6602 112.658 17.5465 112.408 18.5178 112.408C19.4837 112.408 20.3754 112.652 21.1874 113.135C21.9995 113.624 22.6417 114.282 23.114 115.12C23.5811 115.959 23.8199 116.866 23.8199 117.848C23.8199 118.83 23.5864 119.738 23.1247 120.571C22.6576 121.399 22.0207 122.057 21.2193 122.535C20.4125 123.013 19.5262 123.251 18.5549 123.251C17.589 123.251 16.692 123.007 15.8746 122.524C15.0573 122.041 14.4151 121.383 13.9427 120.56ZM31.1655 121.611C30.8629 121.107 30.7143 120.539 30.7143 119.913V110.742H28.809V119.971C28.809 120.98 29.0372 121.871 29.5042 122.652C29.9713 123.432 30.6082 124.032 31.4202 124.456C32.2323 124.886 33.1292 125.098 34.1111 125.098C35.1036 125.098 36.0059 124.886 36.8179 124.456C37.63 124.032 38.2722 123.432 38.7445 122.652C39.2169 121.871 39.4504 120.98 39.4504 119.971V110.742H37.5875V119.913C37.5875 120.539 37.4336 121.112 37.1311 121.622C36.8339 122.131 36.4146 122.53 35.8891 122.816C35.3584 123.108 34.7639 123.251 34.1111 123.251C33.4795 123.251 32.9063 123.103 32.3915 122.811C31.8714 122.514 31.4627 122.116 31.1655 121.611ZM45.7929 125.284C46.2281 124.467 46.4404 123.49 46.4404 122.365V110.742H44.535V122.307C44.535 123.485 44.2537 124.387 43.6805 125.008C43.1126 125.629 42.343 125.969 41.377 126.017V127.864C42.3589 127.837 43.2294 127.609 43.9989 127.168C44.7632 126.728 45.363 126.101 45.7929 125.284ZM59.7568 110.742H50.5271V124.939H60.0328V123.092H52.4325V118.713H58.9713V116.888H52.4325V112.567H59.7568V110.742ZM72.5797 110.742H63.35V124.939H72.8557V123.092H65.2554V118.713H71.7942V116.888H65.2554V112.567H72.5797V110.742ZM93.6291 124.939V110.742H91.7237V116.888H84.2826V110.742H82.3773V124.939H84.2826V118.713H91.7237V124.939H93.6291ZM97.8114 114.239C97.1586 115.349 96.8295 116.553 96.8295 117.848C96.8295 119.186 97.1533 120.407 97.8061 121.511C98.4536 122.62 99.3346 123.49 100.444 124.132C101.558 124.775 102.769 125.098 104.08 125.098C105.375 125.098 106.579 124.775 107.699 124.122C108.819 123.474 109.705 122.593 110.364 121.484C111.016 120.369 111.345 119.159 111.345 117.848C111.345 116.553 111.011 115.349 110.353 114.239C109.69 113.125 108.803 112.238 107.694 111.575C106.579 110.917 105.375 110.582 104.08 110.582C102.769 110.582 101.564 110.917 100.455 111.575C99.3506 112.238 98.4695 113.125 97.8114 114.239ZM99.5045 120.56C99.0321 119.738 98.7933 118.841 98.7933 117.87C98.7933 116.888 99.0268 115.98 99.4939 115.142C99.9556 114.303 100.598 113.64 101.41 113.146C102.217 112.658 103.108 112.408 104.08 112.408C105.045 112.408 105.937 112.652 106.749 113.135C107.561 113.624 108.203 114.282 108.676 115.12C109.143 115.959 109.382 116.866 109.382 117.848C109.382 118.83 109.148 119.738 108.681 120.571C108.219 121.399 107.582 122.057 106.781 122.535C105.974 123.013 105.088 123.251 104.117 123.251C103.151 123.251 102.254 123.007 101.436 122.524C100.619 122.041 99.9715 121.383 99.5045 120.56ZM128.664 110.291H128.643L121.557 120.189L114.567 110.291H114.546V124.939H116.393V116.007L121.515 123.151H121.557L126.78 115.747V124.939H128.664V110.291ZM141.98 110.742H132.75V124.939H142.256V123.092H134.656V118.713H141.195V116.888H134.656V112.567H141.98V110.742Z" fill="#DD6C2C"/>
</svg>

<?xml version="1.0" encoding="utf-8"?>
<!-- Generator: Adobe Illustrator 21.0.2, SVG Export Plug-In . SVG Version: 6.00 Build 0)  -->
<svg version="1.1" id="Layer_1" xmlns="http://www.w3.org/2000/svg" xmlns:xlink="http://www.w3.org/1999/xlink" x="0px" y="0px"
	 viewBox="0 0 143 128" style="enable-background:new 0 0 143 128;" xml:space="preserve">
<style type="text/css">
	.st0{fill:#FFFFFF;}
</style>
<path class="st0" d="M106.9,39.2c-0.2-0.2-0.4-0.4-0.7-0.6c-0.1-0.1-0.2-0.2-0.4-0.2c-0.1-0.1-0.2-0.1-0.4-0.2
	c-0.3-0.1-0.7-0.2-1-0.3c-0.1,0-0.3,0-0.5,0c-0.2,0-0.4,0-0.5,0c-0.1,0-0.1,0-0.1,0l-0.4,0.1c-0.1,0-0.2,0-0.2,0.1
	c-0.3,0.1-0.6,0.2-0.9,0.3c-0.8,0.4-1.4,0.9-2,1.5L98.6,41l1-7.7c0.1-0.8,0.3-1.7,0.5-2.5l1.9-8c0.1-0.2,0.1-0.4,0-0.7l1-4
	c0.1-0.2,0.2-0.4,0.3-0.6l0.2-0.9c1-4,1.1-8.2,0.4-12.2c-0.3-1.8-1.5-3.3-3.1-4C100.2,0.2,99.4,0,98.6,0c-1,0-2,0.2-2.9,0.8l-6,3.5
	c-4.1,2.5-8.6,4.2-13.3,5.3c-1.6,0.4-3.2,0.6-4.9,0.6h-0.5c-1.6,0-3.3-0.2-4.9-0.6C61.5,8.5,57,6.8,52.9,4.3l-6-3.5
	C46,0.2,45,0,44,0c-0.8,0-1.6,0.2-2.3,0.5c-1.6,0.7-2.8,2.3-3.1,4C37.9,8.6,38,12.7,39,16.8l0.2,0.9c0.1,0.2,0.2,0.4,0.3,0.6l1,4
	c-0.1,0.2-0.1,0.4,0,0.7l1.9,8c0.2,0.8,0.4,1.7,0.5,2.5l1,7.7l-1.1-1.2c-0.6-0.6-1.3-1.1-2-1.5c-0.3-0.1-0.6-0.2-0.9-0.3
	c-0.1,0-0.2,0-0.2-0.1c-0.1,0-0.2-0.1-0.4-0.1c-0.1,0-0.1,0-0.1,0c-0.2,0-0.4,0-0.5,0c-0.2,0-0.3,0-0.5,0c-0.3,0.1-0.7,0.1-1,0.3
	c-0.1,0.1-0.2,0.1-0.4,0.2c-0.1,0.1-0.2,0.1-0.4,0.2c-0.2,0.2-0.5,0.4-0.7,0.6c-1.3,1.4-1.6,3.3-0.7,5l4.5,8.2
	c0.6,1.2,1.8,2.1,3.1,2.4l0.5,0.1l1.1,0.3l6.5,30.3C51,88,52.7,90,55,90.7c0.5,0.1,0.9,0.2,1.4,0.3c0.2,0,0.4,0,0.5,0
	c1.7,0,3.4-0.7,4.6-2l9.7-10.3L81,89c1.2,1.3,2.9,2,4.6,2c0.2,0,0.4,0,0.5,0c0.2,0,0.4,0,0.5,0c0.6,0,1.3-0.1,1.9-0.3
	c2.3-0.7,4-2.7,4.4-5.1l6.5-30.4c0-0.1,0-0.1,0-0.2l0.5-0.1c1.3-0.3,2.5-1.2,3.1-2.4l4.5-8.2c0.1-0.1,0.1-0.2,0.2-0.4
	c0-0.1,0.1-0.2,0.1-0.2c0-0.1,0.1-0.2,0.1-0.3c0-0.1,0.1-0.2,0.1-0.3l0.1-0.3c0-0.1,0-0.2,0-0.3C108.2,41.4,107.8,40.2,106.9,39.2z
	 M97.8,28.8l-0.4,1.5c-0.2,0.9-0.4,1.8-0.5,2.8L96,39.4l-23.3,7.7V12.8c1.5-0.1,2.9-0.3,4.3-0.6l0.1,0c5-1.1,9.8-3,14.2-5.6l6-3.5
	c0.4-0.2,0.9-0.4,1.3-0.4c0.4,0,0.7,0.1,1.1,0.3c0.8,0.4,1.4,1.1,1.6,2c0.6,3.7,0.5,7.5-0.4,11.2l-1.7,7.1c-0.1,0.2-0.1,0.4,0,0.7
	l-1,4.4C97.9,28.4,97.8,28.6,97.8,28.8z M83.6,56.3l-9.2,3.1c-0.6,0.2-1.2,0.3-1.7,0.4v-9.7l22.9-7.6l-0.3,1.9L83.6,56.3z
	 M71.5,62.6c1.4,0,2.8-0.2,4.1-0.7l9-3c0.1,0,0.1-0.1,0.2-0.1l0.1,0l0.1,0L71.3,73.5L57.6,58.8l0.1,0l0.1,0c0.1,0,0.1,0.1,0.2,0.1
	l9,3c1.3,0.4,2.7,0.7,4.1,0.7H71.5z M55.9,88.1c-1.4-0.4-2.3-1.5-2.6-3c0,0,0-0.1,0-0.1l-6.2-29l3.7,1l2,0.5l17.3,18.6L59.7,87.2
	c-0.9,0.9-2,1.3-3.2,1.1C56.3,88.2,56.1,88.2,55.9,88.1z M45.7,33c-0.1-0.9-0.3-1.8-0.5-2.8l-0.4-1.5c-0.1-0.2-0.2-0.4-0.3-0.6
	l-1-4.4c0.1-0.2,0.1-0.4,0-0.7l-1.7-7.1c-0.9-3.7-1-7.4-0.4-11.2c0.2-0.9,0.7-1.7,1.6-2c0.4-0.2,0.7-0.2,1.1-0.3
	c0.5,0,0.9,0.1,1.3,0.4l6,3.5c4.4,2.6,9.2,4.5,14.2,5.6l0.1,0c1.4,0.3,2.9,0.5,4.3,0.6v34.4l-23.3-7.7L45.7,33z M47.3,44.4L47,42.5
	L70,50.1v9.7c-0.6-0.1-1.2-0.2-1.7-0.4L59,56.3L47.3,44.4z M43.3,52.3c-0.6-0.2-1.1-0.6-1.4-1.1L37.4,43c-0.1-0.1-0.1-0.2-0.1-0.3
	c0-0.1-0.1-0.2-0.1-0.2v0c-0.1-0.4,0.1-0.7,0.2-1c0,0,0-0.1,0.1-0.1c0-0.1,0.1-0.1,0.1-0.1l0.1-0.1c0,0,0-0.1,0.1-0.1
	c0.1-0.1,0.6-0.5,1.2-0.5c0.2,0,0.5,0.1,0.7,0.2c0.5,0.2,0.9,0.6,1.3,1l13.1,13.4c-0.1-0.1-0.3-0.1-0.4-0.1L43.3,52.3z M86.2,88.3
	C85,88.5,83.8,88,83,87.1L72.5,76.1l17.3-18.5l2-0.5l3.7-1l1.1-0.3l-6.3,29.3c0,0,0,0.1,0,0.1c-0.2,1.4-1.2,2.5-2.6,3
	C87.3,88.3,86.7,88.4,86.2,88.3z M105.4,42.4c0,0.1,0,0.1,0,0.1c0,0.1,0,0.1,0,0.1c0,0.1-0.1,0.2-0.1,0.3l-4.5,8.2
	c-0.3,0.6-0.8,0.9-1.4,1.1L89,55c-0.2,0-0.3,0.1-0.4,0.1l13.1-13.4c0.4-0.4,0.8-0.7,1.3-1c0.3-0.1,0.5-0.2,0.7-0.2
	c0.6,0,1,0.4,1.2,0.5c0,0.1,0.1,0.1,0.2,0.2c0,0,0.1,0.1,0.1,0.1c0,0.1,0.1,0.1,0.1,0.2c0,0,0,0.1,0,0.1
	C105.4,41.9,105.4,42.1,105.4,42.4z"/>
<path class="st0" d="M8.2,118.9c-0.5-0.6-1.1-1-1.9-1.3c0.6-0.3,1.1-0.8,1.4-1.3c0.3-0.6,0.5-1.2,0.5-2c0-1.2-0.4-2.1-1.2-2.7
	c-0.8-0.6-1.9-0.9-3.4-0.9H0v14.2h4.2c0.9,0,1.6-0.1,2.3-0.4c0.7-0.3,1.3-0.7,1.7-1.3c0.4-0.6,0.7-1.3,0.7-2.3
	C9,120.2,8.7,119.5,8.2,118.9z M1.9,116.9v-4.4h1.8c0.8,0,1.4,0.2,1.9,0.5c0.4,0.4,0.7,0.9,0.7,1.6c0,0.7-0.2,1.2-0.6,1.6
	c-0.4,0.4-0.9,0.6-1.7,0.6H1.9z M6.2,122.6c-0.5,0.4-1.2,0.6-2,0.6H1.9v-4.4H4c0.8,0,1.5,0.2,2.1,0.5c0.6,0.4,0.9,0.9,0.9,1.7
	C7,121.7,6.7,122.2,6.2,122.6z M12.3,114.2c-0.7,1.1-1,2.3-1,3.6c0,1.3,0.3,2.6,1,3.7c0.6,1.1,1.5,2,2.6,2.6c1.1,0.6,2.3,1,3.6,1
	c1.3,0,2.5-0.3,3.6-1c1.1-0.6,2-1.5,2.7-2.6c0.7-1.1,1-2.3,1-3.6c0-1.3-0.3-2.5-1-3.6c-0.7-1.1-1.5-2-2.7-2.7c-1.1-0.7-2.3-1-3.6-1
	c-1.3,0-2.5,0.3-3.6,1C13.8,112.2,12.9,113.1,12.3,114.2z M13.9,120.6c-0.5-0.8-0.7-1.7-0.7-2.7c0-1,0.2-1.9,0.7-2.7
	c0.5-0.8,1.1-1.5,1.9-2c0.8-0.5,1.7-0.7,2.7-0.7c1,0,1.9,0.2,2.7,0.7c0.8,0.5,1.5,1.1,1.9,2c0.5,0.8,0.7,1.7,0.7,2.7
	s-0.2,1.9-0.7,2.7c-0.5,0.8-1.1,1.5-1.9,2c-0.8,0.5-1.7,0.7-2.7,0.7c-1,0-1.9-0.2-2.7-0.7C15.1,122,14.4,121.4,13.9,120.6z
	 M31.2,121.6c-0.3-0.5-0.5-1.1-0.5-1.7v-9.2h-1.9v9.2c0,1,0.2,1.9,0.7,2.7c0.5,0.8,1.1,1.4,1.9,1.8c0.8,0.4,1.7,0.6,2.7,0.6
	c1,0,1.9-0.2,2.7-0.6c0.8-0.4,1.5-1,1.9-1.8c0.5-0.8,0.7-1.7,0.7-2.7v-9.2h-1.9v9.2c0,0.6-0.2,1.2-0.5,1.7c-0.3,0.5-0.7,0.9-1.2,1.2
	c-0.5,0.3-1.1,0.4-1.8,0.4c-0.6,0-1.2-0.1-1.7-0.4C31.9,122.5,31.5,122.1,31.2,121.6z M45.8,125.3c0.4-0.8,0.6-1.8,0.6-2.9v-11.6
	h-1.9v11.6c0,1.2-0.3,2.1-0.9,2.7c-0.6,0.6-1.3,1-2.3,1v1.8c1,0,1.9-0.3,2.6-0.7C44.8,126.7,45.4,126.1,45.8,125.3z M59.8,110.7
	h-9.2v14.2H60v-1.8h-7.6v-4.4H59v-1.8h-6.5v-4.3h7.3V110.7z M72.6,110.7h-9.2v14.2h9.5v-1.8h-7.6v-4.4h6.5v-1.8h-6.5v-4.3h7.3V110.7
	z M93.6,124.9v-14.2h-1.9v6.1h-7.4v-6.1h-1.9v14.2h1.9v-6.2h7.4v6.2H93.6z M97.8,114.2c-0.7,1.1-1,2.3-1,3.6c0,1.3,0.3,2.6,1,3.7
	c0.6,1.1,1.5,2,2.6,2.6c1.1,0.6,2.3,1,3.6,1c1.3,0,2.5-0.3,3.6-1c1.1-0.6,2-1.5,2.7-2.6c0.7-1.1,1-2.3,1-3.6c0-1.3-0.3-2.5-1-3.6
	c-0.7-1.1-1.5-2-2.7-2.7c-1.1-0.7-2.3-1-3.6-1c-1.3,0-2.5,0.3-3.6,1C99.4,112.2,98.5,113.1,97.8,114.2z M99.5,120.6
	c-0.5-0.8-0.7-1.7-0.7-2.7c0-1,0.2-1.9,0.7-2.7c0.5-0.8,1.1-1.5,1.9-2c0.8-0.5,1.7-0.7,2.7-0.7c1,0,1.9,0.2,2.7,0.7
	c0.8,0.5,1.5,1.1,1.9,2c0.5,0.8,0.7,1.7,0.7,2.7s-0.2,1.9-0.7,2.7c-0.5,0.8-1.1,1.5-1.9,2c-0.8,0.5-1.7,0.7-2.7,0.7
	c-1,0-1.9-0.2-2.7-0.7C100.6,122,100,121.4,99.5,120.6z M128.7,110.3L128.7,110.3l-7.1,9.9l-7-9.9h0v14.6h1.8V116l5.1,7.1h0l5.2-7.4
	v9.2h1.9V110.3z M142,110.7h-9.2v14.2h9.5v-1.8h-7.6v-4.4h6.5v-1.8h-6.5v-4.3h7.3V110.7z"/>
</svg>
